src/Icon/svgs/Earybird.svg

<svg width="24" height="24" viewBox="0 0 24 24" fill="none" xmlns="http://www.w3.org/2000/svg">
<path fill-rule="evenodd" clip-rule="evenodd" d="M3 5.31453C3.74605 5.31453 4.45927 5.31453 5.13967 5.31453C6.69741 4.09682 8.18292 3.72513 9.59618 4.19944C11.7161 4.91092 12.1989 6.31749 12.1764 8.0003V8.89556C15.3719 8.97842 18.3966 7.45596 20.2337 4.84004C20.2337 4.84004 23.8147 12.8974 15.7574 16.4784C17.6012 17.7299 19.7734 18.0886 22 18C20 19 18 20 15 20C9 20 4 15.5767 4 9C4 8.33333 4.06356 7.74346 4.19069 7.23038C3.84453 6.69919 3.44763 6.06058 3 5.31453Z" fill="#1B1C1D"/>
</svg>

<svg xmlns="http://www.w3.org/2000/svg" width="24" height="24" fill="none"  xmlns:v="https://vecta.io/nano"><path fill-rule="evenodd" d="M3 5.315h2.14c1.558-1.218 3.043-1.589 4.457-1.115 2.12.711 2.603 2.118 2.58 3.801v.895c3.196.083 6.22-1.44 8.057-4.056 0 0 3.581 8.057-4.476 11.638C17.601 17.73 19.773 18.089 22 18c-2 1-4 2-7 2C9 20 4 15.577 4 9c0-.667.064-1.257.191-1.77A61.9 61.9 0 0 1 3 5.315z" fill="#1b1c1d"/></svg>
